X: 09003
T: AMY'S TUNE
C: Bob McQuillen 15 Oct 92
B: Bob's Note Book 9 #3
%R: reel
Z: 2019 John Chambers <jc:trillian.mit.edu>
N: In the NEFFA 2019 Bob McQuillen Slow Jam set.
M: C
L: 1/8
K: D
ag \
| f2df gbag | fdAF GBAG | FDFA dfaf | g2e2 e2ag |
| f2df gbag | fdAF GBAG | FAdf gecd | e2d2 d2 :|
|: AG \
| FAde fdAF | DFAd f2AG | FDFA dBAF | G2E2 E2AG |
| FAde fdAF | DFAd fafd | cedB Aceg | f2d2 d2 :|
%%begintext align
%% I first met Amy Cann
%% at Indian Neck; she's a real sparky fiddler and lots
%% of fun to play tunes with. She lives up this way now
%% and I see her quite often at the dances - see how this
%% tune sounds for your fiddle, Amy - I hope you like it!
%%endtext
